X:1    
T:The Swan Swims So Bonny
B:Palmer, Roy, 1998, A Book of British Ballads, Llanerch
Z:Frank Kidson/Gilcrest Papers
F:http://www.folkinfo.org/songs
M:4/4     %Meter
L:1/8     %
K:D
B,2 |D2 DD (CD) ED |C2 D2 A,4 |
w:A far-mer there lived_ in the North Coun-try, 
A4 F3 D | F2 A2 A3
w:Hey ho, my Nan-ny, O, 
 A |B2 (dB) A2 (FD) |E2 D2 E2
w:And he had_ daugh-ters_ one, two, three, 
 FE |D4 B,3 A, | B,2 D2 D2 z2 |]
w:Where the swan swims so bon-ny, O. 